X:1
T:Chalfont, 76.76.87
T:Chalfont, 76.76.87
T:Arranged from Franz Josef Haydn (1732-1809)
T:Public Domain Courtesy of the Cyber Hymnal™
C:Arranged from Franz Josef Haydn (1732-1809)
Z:Public Domain
Z:Courtesy of the Cyber Hymnal™
%%score ( 1 2 ) ( 3 4 )
L:1/8
Q:1/4=108
M:4/4
K:G
V:1 treble 
V:2 treble 
V:3 bass 
V:4 bass 
V:1
 [B,D]2 | [DG]2 [DF]2 [DA]2 [DG]2 | ([DB]3 [CA]) [B,G]2 [DG]2 | [EA]2 [DB]2 [Cc]2 [EA]2 | %4
 (G4 F2) D2 | [DG]2 [DF]2 [DA]2 [DG]2 | ([GB]3 [FA]) G2 [DB]2 | [DA]2 [Fd]2 [Ge]2 [G^c]2 | %8
 [Fd]6 [Dd][Dd] | [Dc]2 [DB]2 [FA]2 G2 | ([DF]3 G) [FA]2 | [=FG][FG] | [EA]2 [Ec]2 [DF]2 [CA]2 | %13
 [B,G]6 |] %14
V:2
 x2 | x8 | x8 | x8 | D6 D2 | x8 | x4 G2 x2 | x8 | x8 | x6 G2 | x3 G x2 | x2 | x8 | x6 |] %14
V:3
 [G,,G,]2 | [G,B,]2 [A,C]2 [F,C]2 [G,B,]2 | (G,3 F,) [E,G,]2 [B,,G,]2 | %3
 [C,G,]2 [B,,^G,]2 [A,,A,]2 [C,A,]2 | (B,4 A,2) D,2 | [G,B,]2 [A,C]2 [F,C]2 [G,B,]2 | %6
 (D3 C) [E,B,]2 G,2 | [F,A,]2 [D,A,]2 [G,B,]2 A,2 | [D,A,]6 [D,F,][D,F,] | %9
 [F,A,]2 [G,B,]2 [A,C]2 [B,D]2 | D4 [A,D]2 | [B,,D][B,,D] | [C,C]2 [A,,C]2 [D,A,]2 [D,F,]2 | %13
 [G,,G,]6 |] %14
V:4
 x2 | x8 | D,4 x4 | x8 | D,6 D,2 | x8 | D,4 G,2 x2 | x6 A,2 | x8 | x8 | (C3 B,) x2 | x2 | x8 | %13
 x6 |] %14

